X:2403
T:Mylecharaine
C:Traditional
O:Isle of Man 
S:Mr H Bridson, Cronkbourne
Z:Collected by A.W.Moore et al.
N:See also KV 247,294,295,302,373,404.
B:Kiaull Vannin #403
M:3/4 
L:1/4
K:D
d|dAd|d2 (f/e/)|d (A/G/) (F/D/)|E D (e/f/)|g f e|(d-c) d|e2 (c/-d/)|
e a g|f e (d/c/)|d (A/G/) (F/D/)|_|E F G/B/|A3/2G/ (F/-E/)|D d c|d2||

